localPackages/DesignSystem/Sources/DesignSystem/Resources/Assets.xcassets/IconSet/ic-lock-check-filled.imageset/ic-lock-check-filled.svg

<svg width="24" height="24" viewBox="0 0 24 24" fill="none" xmlns="http://www.w3.org/2000/svg">
<g id="ic-lock-check-filled">
<path id="Icon" fill-rule="evenodd" clip-rule="evenodd" d="M7.8 7.5H7.5C7.5 5.01472 9.51472 3 12 3C14.4853 3 16.5 5.01472 16.5 7.5H16.2H7.8ZM6 7.52878V7.5C6 4.18629 8.68629 1.5 12 1.5C15.3137 1.5 18 4.18629 18 7.5V7.52878C18.5883 7.56471 19.0057 7.64546 19.362 7.82698C19.9265 8.1146 20.3854 8.57354 20.673 9.13803C21 9.77976 21 10.6198 21 12.3V17.7C21 19.3802 21 20.2202 20.673 20.862C20.3854 21.4265 19.9265 21.8854 19.362 22.173C18.7202 22.5 17.8802 22.5 16.2 22.5H7.8C6.11984 22.5 5.27976 22.5 4.63803 22.173C4.07354 21.8854 3.6146 21.4265 3.32698 20.862C3 20.2202 3 19.3802 3 17.7V12.3C3 10.6198 3 9.77976 3.32698 9.13803C3.6146 8.57354 4.07354 8.1146 4.63803 7.82698C4.99429 7.64546 5.41168 7.56471 6 7.52878ZM17.7803 11.4697C18.0732 11.7626 18.0732 12.2374 17.7803 12.5303L11.9925 18.3182C11.5824 18.7282 10.9176 18.7283 10.5075 18.3182L7.71967 15.5303C7.42678 15.2374 7.42678 14.7626 7.71967 14.4697C8.01256 14.1768 8.48744 14.1768 8.78033 14.4697L11.25 16.9393L16.7197 11.4697C17.0126 11.1768 17.4874 11.1768 17.7803 11.4697Z" fill="#0F0F0F"/>
</g>
</svg>

<svg xmlns="http://www.w3.org/2000/svg" width="24" height="24" viewBox="0 0 24 24">
  <g class="ic-lock-check-filled">
    <path fill-rule="evenodd" d="M7.8 7.5h-.3a4.5 4.5 0 0 1 9 0H7.8ZM6 7.529V7.5a6 6 0 1 1 12 0v.029c.588.036 1.006.116 1.362.298a3 3 0 0 1 1.311 1.311C21 9.78 21 10.62 21 12.3v5.4c0 1.68 0 2.52-.327 3.162a3 3 0 0 1-1.311 1.311c-.642.327-1.482.327-3.162.327H7.8c-1.68 0-2.52 0-3.162-.327a3 3 0 0 1-1.311-1.311C3 20.22 3 19.38 3 17.7v-5.4c0-1.68 0-2.52.327-3.162a3 3 0 0 1 1.311-1.311c.356-.182.774-.262 1.362-.298Zm11.78 3.94a.75.75 0 0 1 0 1.061l-5.788 5.788a1.05 1.05 0 0 1-1.485 0L7.72 15.53a.75.75 0 1 1 1.06-1.06l2.47 2.47 5.47-5.47a.75.75 0 0 1 1.06 0Z" class="Icon"/>
  </g>
</svg>
